usr/share/icons/big-icons/symbolic/actions/insert-footnote.svg

<svg xmlns="http://www.w3.org/2000/svg" viewBox="0 0 16 16">
<defs id="defs3051">
<style id="current-color-scheme" type="text/css">
.ColorScheme-Text{color:#fcfcfc}.ColorScheme-Highlight{color:#3daee9}
</style>
</defs>
<path d="M2 2v12h9v-1H3V3h10v4h1V2zm2 2v1h7V4zm0 2v1h5V6zm0 3v1h6V9z" class="ColorScheme-Text" style="fill:currentColor;fill-opacity:1;stroke:none"/>
<path d="m13 8-1 2h1v4h1V8zm-9 3v1h4v-1z" class="ColorScheme-Highlight" style="fill:currentColor;fill-opacity:1;stroke:none"/>
</svg>

<svg xmlns="http://www.w3.org/2000/svg" viewBox="0 0 16 16">
  <defs id="defs3051">
    <style type="text/css" id="current-color-scheme">
      .ColorScheme-Text {
        color:#eff0f1;
      }
      .ColorScheme-Highlight {
        color:#3daee9;
      }
      </style>
  </defs>
  <path 
        style="fill:currentColor;fill-opacity:1;stroke:none"
        d="M 2 2 L 2 9 L 2 11 L 2 14 L 11 14 L 11 13 L 3 13 L 3 11 L 3 9 L 3 3 L 13 3 L 13 7 L 14 7 L 14 2 L 2 2 z M 4 4 L 4 5 L 11 5 L 11 4 L 4 4 z M 4 6 L 4 7 L 9 7 L 9 6 L 4 6 z M 4 9 L 4 10 L 10 10 L 10 9 L 4 9 z "
        class="ColorScheme-Text"
        />
  <path 
        style="fill:currentColor;fill-opacity:1;stroke:none"
        d="M 13 8 L 12 10 L 13 10 L 13 14 L 14 14 L 14 8 L 13 8 z M 4 11 L 4 12 L 8 12 L 8 11 L 4 11 z "
        class="ColorScheme-Highlight"
        />
</svg>
